public/assets/img/icons/recruit-value-message.svg

<svg width="40" height="35" viewBox="0 0 40 35" fill="none" xmlns="http://www.w3.org/2000/svg">
<path d="M8.28125 11.6666H35.2344V3.49999C35.2344 1.56698 33.6604 0 31.7188 0H3.51562C1.57398 0 0 1.56698 0 3.49999V22.1666C0 24.0996 1.57398 25.6666 3.51562 25.6666H4.76562V31.4999C4.76562 31.9715 5.05055 32.3977 5.48891 32.5777C5.92078 32.7571 6.42773 32.6615 6.76609 32.3247L13.454 25.6666H16.4844V18.6666H8.28125C7.63352 18.6666 7.10938 18.1448 7.10938 17.4999C7.10938 16.8551 7.63352 16.3333 8.28125 16.3333H16.603C16.7805 15.4658 17.1679 14.6815 17.6862 14H8.28125C7.63352 14 7.10938 13.4781 7.10938 12.8333C7.10938 12.1884 7.63352 11.6666 8.28125 11.6666ZM8.28125 6.99998H27.0312C27.679 6.99998 28.2031 7.52179 28.2031 8.16664C28.2031 8.81149 27.679 9.3333 27.0312 9.3333H8.28125C7.63352 9.3333 7.10938 8.81149 7.10938 8.16664C7.10938 7.52179 7.63352 6.99998 8.28125 6.99998Z" fill="white"/>
<path d="M36.4844 14H22.3438C20.4052 14 18.8281 15.57 18.8281 17.5V26.8333C18.8281 28.7633 20.4052 30.3333 22.3438 30.3333H28.8898L33.2339 34.6581C33.5722 34.9949 34.0792 35.0905 34.5111 34.911C34.9494 34.7311 35.2344 34.3049 35.2344 33.8333V30.3333H36.4844C38.423 30.3333 40 28.7633 40 26.8333V17.5C40 15.57 38.423 14 36.4844 14ZM32.5473 21.8248L29.0316 25.3248C28.5739 25.7805 27.8323 25.7805 27.3745 25.3248L25.6167 23.5748C25.159 23.1191 25.159 22.3808 25.6167 21.9251C26.0745 21.4694 26.8161 21.4694 27.2738 21.9251L28.2031 22.8502L30.8902 20.1751C31.348 19.7194 32.0896 19.7194 32.5473 20.1751C33.0051 20.6308 33.0051 21.3691 32.5473 21.8248Z" fill="white"/>
</svg>

<svg width="40" height="35" fill="none" xmlns="http://www.w3.org/2000/svg"><path d="M8.281 11.667h26.953V3.5c0-1.933-1.574-3.5-3.515-3.5H3.516A3.508 3.508 0 0 0 0 3.5v18.667c0 1.933 1.574 3.5 3.516 3.5h1.25V31.5c0 .471.285.898.723 1.078.432.18.939.083 1.277-.253l6.688-6.658h3.03v-7H8.281A1.169 1.169 0 0 1 7.11 17.5c0-.645.525-1.167 1.172-1.167h8.322A5.766 5.766 0 0 1 17.686 14H8.281a1.169 1.169 0 0 1-1.172-1.167c0-.645.525-1.166 1.172-1.166zm0-4.667h18.75c.648 0 1.172.522 1.172 1.167 0 .644-.524 1.166-1.172 1.166H8.281A1.169 1.169 0 0 1 7.11 8.167C7.11 7.522 7.634 7 8.281 7z" fill="#fff"/><path d="M36.484 14h-14.14c-1.939 0-3.516 1.57-3.516 3.5v9.333c0 1.93 1.577 3.5 3.516 3.5h6.546l4.344 4.325c.338.337.845.432 1.277.253.438-.18.723-.606.723-1.078v-3.5h1.25c1.939 0 3.516-1.57 3.516-3.5V17.5c0-1.93-1.577-3.5-3.516-3.5zm-3.937 7.825-3.515 3.5c-.458.456-1.2.456-1.657 0l-1.758-1.75a1.163 1.163 0 0 1 0-1.65 1.175 1.175 0 0 1 1.657 0l.93.925 2.686-2.675a1.175 1.175 0 0 1 1.657 0 1.162 1.162 0 0 1 0 1.65z" fill="#fff"/></svg>
